X: 1
T: Rainy Day Rag
C: J Wrigley
%D:
R: rag, reel
S: Fiddle Hell Online 2022-4-10 handout for ???
Z: 2022 John Chambers <jc:trillian.mit.edu>
M: 4/4
L: 1/8
K: A
% - - - - - - - - - -
[|\
"A"c2cc cBAc | "D"d2dd dcBd | "A"c2cc cBAc | "E"B2BB B2BB || "A"c2cc cBAc |
"D"d2dd dcBd | "A"c2cc "E"BABc | "A"A2AA A2AA |[| "A"e2ee e2ee | e2ee cBA2 |
"E"B2BB B2AB | "A"c2e2 e4 || "A"e2ee e2ee | e2ee cBA2 | "E"B2BB B2cB | "A"A2A2 A4 |]
